X:1
T:Daisy Daisy
C:Traditional
M:3/4
L:1/4
Q:1/4=120
K:G
B/2c/2 | d3 | B3 | G3 | D3 | E F G | E2 G | D3 | D2 G |
A3 | d3 | B3 | G3 | E F G | A2 B | A2 G | G3 |]
